modules/feathericon/icons/sync.svg

<?xml version="1.0" encoding="UTF-8"?>
<svg width="24px" height="24px" viewBox="0 0 24 24" version="1.1" xmlns="http://www.w3.org/2000/svg" xmlns:xlink="http://www.w3.org/1999/xlink">
    <!-- Generator: sketchtool 52.2 (67145) - http://www.bohemiancoding.com/sketch -->
    <title>sync</title>
    <desc>Created with sketchtool.</desc>
    <g id="web-app" stroke="none" stroke-width="1" fill="none" fill-rule="evenodd">
        <g id="sync" fill="#000000">
            <path d="M6.8762659,15.1237341 C7.93014755,16.8486822 9.83062143,18 12,18 C14.6124377,18 16.8349158,16.3303847 17.6585886,14 L19.747965,14 C18.8598794,17.4504544 15.7276789,20 12,20 C9.28005374,20 6.87714422,18.6426044 5.43172915,16.5682708 L3,19 L3,13 L9,13 L6.8762659,15.1237341 Z M17.1245693,8.87543068 C16.0703077,7.15094618 14.1695981,6 12,6 C9.3868762,6 7.16381436,7.66961525 6.33992521,10 L4.25,10 C5.13831884,6.54954557 8.27134208,4 12,4 C14.7202162,4 17.123416,5.35695218 18.5692874,7.43071264 L21,5 L21,11 L15,11 L17.1245693,8.87543068 Z" id="Shape"></path>
        </g>
    </g>
</svg>

<svg width="24" height="24" viewBox="0 0 24 24" xmlns="http://www.w3.org/2000/svg"><path d="M6.876 15.124A6.002 6.002 0 0 0 17.658 14h2.09a8.003 8.003 0 0 1-14.316 2.568L3 19v-6h6l-2.124 2.124zm10.249-6.249A6.004 6.004 0 0 0 6.34 10H4.25a8.005 8.005 0 0 1 14.32-2.57L21 5v6h-6l2.125-2.125z" fill="#000" fill-rule="evenodd"/></svg>
